<?xml version="1.0" encoding="UTF-8"?>
<map version="1.9" tiledversion="1.9.2" orientation="orthogonal" renderorder="right-down" width="32" height="24" tilewidth="32" tileheight="32" infinite="0" nextlayerid="2" nextobjectid="1">
 <tileset firstgid="1" source="tileset.tsx"/>
 <layer id="1" name="Capa de patrones 1" width="32" height="24" offsetx="-7" offsety="0">
  <data encoding="csv">
55,55,55,55,55,55,55,55,55,55,55,55,55,55,55,55,55,55,55,55,55,55,55,55,55,55,55,55,55,55,55,55,
55,55,55,55,55,55,55,55,55,55,55,55,55,55,55,55,55,55,55,55,55,55,55,55,55,55,55,55,55,55,55,55,
55,55,55,55,55,55,55,55,55,25,48,47,50,55,55,55,55,55,55,55,55,55,1,55,55,55,55,55,55,55,55,55,
55,55,55,55,55,55,55,55,55,25,55,31,55,55,55,55,55,55,55,55,55,48,52,3,3,4,55,55,55,55,55,55,
55,55,55,55,55,55,55,55,55,25,55,55,55,55,55,55,55,55,55,55,55,55,17,18,81,66,49,50,55,55,55,55,
4,55,55,55,55,55,55,55,55,25,55,55,55,55,55,55,26,41,41,27,55,55,32,33,33,34,55,55,55,55,55,55,
19,55,55,55,55,55,55,55,55,25,55,55,55,55,55,55,55,55,55,55,55,55,55,55,55,55,55,55,55,55,55,55,
8,3,3,3,3,3,3,3,3,3,3,3,4,55,55,55,55,55,55,55,55,55,55,55,55,55,55,55,25,48,49,50,
23,33,33,33,33,33,33,33,33,33,33,33,34,55,55,55,55,55,55,55,55,55,55,55,55,55,55,55,25,55,55,55,
19,55,55,55,55,55,55,55,55,55,55,55,55,55,55,55,55,55,55,55,55,55,55,55,55,55,55,55,25,55,55,55,
19,55,55,55,55,55,55,55,55,55,55,55,55,55,55,55,55,55,55,55,55,55,55,55,55,55,55,55,25,55,55,55,
19,55,55,55,55,55,55,55,55,55,55,55,55,55,55,55,55,55,55,55,55,55,55,55,55,55,55,1,25,55,55,55,
8,3,3,3,3,3,3,3,3,3,25,4,55,55,55,55,55,55,55,55,55,55,48,49,50,55,55,82,49,50,55,55,
18,18,18,18,18,18,18,18,18,18,25,19,55,1,55,55,55,55,48,49,50,55,55,55,55,55,55,55,55,55,55,55,
23,33,33,33,33,33,33,33,33,33,25,34,55,16,55,55,55,55,55,55,55,55,55,55,55,55,55,55,55,55,55,55,
19,55,55,55,55,55,55,55,55,55,25,55,55,36,49,49,50,55,55,55,55,55,55,55,55,55,55,55,55,55,55,55,
19,55,55,55,55,55,55,55,55,55,25,55,55,16,55,55,55,55,55,55,55,55,55,55,55,55,55,55,55,55,55,55,
19,55,55,55,55,55,55,55,55,55,25,55,55,16,55,55,55,55,55,55,55,55,55,55,55,55,55,55,55,55,55,55,
19,55,55,55,55,55,55,55,55,55,25,55,55,31,55,55,55,55,55,55,55,55,55,55,55,2,4,55,55,55,55,55,
19,55,55,55,55,55,55,55,55,55,25,55,55,55,55,55,55,55,55,55,55,55,55,55,55,17,66,50,55,55,55,55,
19,55,55,55,55,55,55,55,55,55,25,55,55,55,55,55,55,55,55,55,55,55,9,10,3,7,19,55,55,55,55,55,
19,55,55,55,55,55,55,55,55,55,25,55,55,55,55,55,55,55,55,55,9,10,18,69,18,84,19,55,55,55,55,55,
8,3,3,3,3,3,3,3,3,3,3,3,3,3,3,3,3,3,3,3,7,18,18,18,18,18,8,3,3,3,3,3,
18,81,18,18,18,18,54,18,18,18,18,18,18,18,18,54,18,18,18,18,18,18,18,69,18,81,18,18,18,18,18,18
</data>
 </layer>
</map>
