<?xml version="1.0" encoding="UTF-8"?>
<map version="1.9" tiledversion="1.9.2" orientation="orthogonal" renderorder="right-down" width="20" height="15" tilewidth="64" tileheight="64" infinite="0" nextlayerid="2" nextobjectid="1">
 <tileset firstgid="1" source="C:/Users/l0xx4/Downloads/Bomberman_Assets/Levels/stage2.tsx"/>
 <layer id="1" name="Capa de patrones 1" width="20" height="15">
  <data encoding="csv">
10,12,11,12,12,12,12,12,12,12,12,12,12,11,12,12,11,12,12,13,
18,3,3,3,3,3,3,3,3,3,3,3,3,3,3,3,3,3,3,29,
18,3,5,3,5,3,5,3,5,2,2,5,3,5,3,5,3,5,3,29,
18,3,3,3,3,3,3,3,3,2,2,3,3,3,3,3,3,3,3,29,
18,3,5,3,5,3,5,3,5,2,2,5,3,5,3,5,3,5,3,29,
18,3,3,3,3,3,3,3,3,2,2,3,3,3,3,3,3,3,3,29,
18,3,5,3,5,3,5,3,5,2,2,5,3,5,3,5,3,5,3,29,
18,3,3,3,3,3,3,3,3,2,2,3,3,3,3,3,3,3,3,29,
18,3,5,3,5,3,5,3,5,2,2,5,3,5,3,5,3,5,3,29,
18,3,3,3,3,3,3,3,3,2,2,3,3,3,3,3,3,3,3,29,
18,3,5,3,5,3,5,3,5,2,2,5,3,5,3,5,3,5,3,29,
18,3,3,3,3,3,3,3,3,2,2,3,3,3,3,3,3,3,3,29,
18,3,5,3,5,3,5,3,5,2,2,5,3,5,3,5,3,5,3,29,
34,3,3,3,3,3,3,3,3,3,3,3,3,3,3,3,3,3,3,37,
42,44,44,44,43,44,44,44,44,44,44,44,44,44,43,44,44,44,44,45
</data>
 </layer>
</map>
